static/img/kroki/5c5e6f4e5bcf789bb9327fe98da7c4e2.svg

<?xml version="1.0" encoding="us-ascii" standalone="no"?><svg xmlns="http://www.w3.org/2000/svg" xmlns:xlink="http://www.w3.org/1999/xlink" contentStyleType="text/css" height="535px" preserveAspectRatio="none" style="width:338px;height:535px;" version="1.1" viewBox="0 0 338 535" width="338px" zoomAndPan="magnify"><defs/><g><!--class microsoft_graph_entity--><g id="elem_microsoft_graph_entity"><rect codeLine="23" fill="#3D176E" height="39.7891" id="microsoft_graph_entity" rx="2.5" ry="2.5" style="stroke:#000D19;stroke-width:0.5;" width="236" x="51" y="328.58"/><ellipse cx="66" cy="348.4745" fill="#ADD1B2" rx="11" ry="11" style="stroke:#181818;stroke-width:1.0;"/><path d="M68.9688,354.1152 Q68.3906,354.412 67.75,354.5527 Q67.1094,354.7089 66.4063,354.7089 Q63.9063,354.7089 62.5781,353.0683 Q61.2656,351.412 61.2656,348.287 Q61.2656,345.162 62.5781,343.5058 Q63.9063,341.8495 66.4063,341.8495 Q67.1094,341.8495 67.75,342.0058 Q68.4063,342.162 68.9688,342.4589 L68.9688,345.1777 Q68.3438,344.5995 67.75,344.3339 Q67.1563,344.0527 66.5313,344.0527 Q65.1875,344.0527 64.5,345.1308 Q63.8125,346.1933 63.8125,348.287 Q63.8125,350.3808 64.5,351.4589 Q65.1875,352.5214 66.5313,352.5214 Q67.1563,352.5214 67.75,352.2558 Q68.3438,351.9745 68.9688,351.3964 L68.9688,354.1152 Z " fill="#000000"/><text fill="#D9B8FF" font-family="Helvetica" font-size="17" lengthAdjust="spacing" textLength="194" x="85" y="354.3598">microsoft_graph_entity</text></g><!--class microsoft_graph_service_principal--><g id="elem_microsoft_graph_service_principal"><rect codeLine="26" fill="#3D176E" height="39.7891" id="microsoft_graph_service_principal" rx="2.5" ry="2.5" style="stroke:#000D19;stroke-width:0.5;" width="324" x="7" y="489.37"/><ellipse cx="22" cy="509.2645" fill="#ADD1B2" rx="11" ry="11" style="stroke:#181818;stroke-width:1.0;"/><path d="M24.9688,514.9052 Q24.3906,515.202 23.75,515.3427 Q23.1094,515.4989 22.4063,515.4989 Q19.9063,515.4989 18.5781,513.8583 Q17.2656,512.202 17.2656,509.077 Q17.2656,505.952 18.5781,504.2958 Q19.9063,502.6395 22.4063,502.6395 Q23.1094,502.6395 23.75,502.7958 Q24.4063,502.952 24.9688,503.2489 L24.9688,505.9677 Q24.3438,505.3895 23.75,505.1239 Q23.1563,504.8427 22.5313,504.8427 Q21.1875,504.8427 20.5,505.9208 Q19.8125,506.9833 19.8125,509.077 Q19.8125,511.1708 20.5,512.2489 Q21.1875,513.3114 22.5313,513.3114 Q23.1563,513.3114 23.75,513.0458 Q24.3438,512.7645 24.9688,512.1864 L24.9688,514.9052 Z " fill="#000000"/><text fill="#D9B8FF" font-family="Helvetica" font-size="17" lengthAdjust="spacing" textLength="282" x="41" y="515.1498">microsoft_graph_service_principal</text></g><!--class microsoft_resource--><g id="elem_microsoft_resource"><rect codeLine="29" fill="#3D176E" height="39.7891" id="microsoft_resource" rx="2.5" ry="2.5" style="stroke:#000D19;stroke-width:0.5;" width="200" x="69" y="167.79"/><ellipse cx="84" cy="187.6845" fill="#ADD1B2" rx="11" ry="11" style="stroke:#181818;stroke-width:1.0;"/><path d="M86.9688,193.3252 Q86.3906,193.622 85.75,193.7627 Q85.1094,193.9189 84.4063,193.9189 Q81.9063,193.9189 80.5781,192.2783 Q79.2656,190.622 79.2656,187.497 Q79.2656,184.372 80.5781,182.7158 Q81.9063,181.0595 84.4063,181.0595 Q85.1094,181.0595 85.75,181.2158 Q86.4063,181.372 86.9688,181.6689 L86.9688,184.3877 Q86.3438,183.8095 85.75,183.5439 Q85.1563,183.2627 84.5313,183.2627 Q83.1875,183.2627 82.5,184.3408 Q81.8125,185.4033 81.8125,187.497 Q81.8125,189.5908 82.5,190.6689 Q83.1875,191.7314 84.5313,191.7314 Q85.1563,191.7314 85.75,191.4658 Q86.3438,191.1845 86.9688,190.6064 L86.9688,193.3252 Z " fill="#000000"/><text fill="#D9B8FF" font-family="Helvetica" font-size="17" lengthAdjust="spacing" textLength="158" x="103" y="193.5698">microsoft_resource</text></g><!--class resource--><g id="elem_resource"><rect codeLine="32" fill="#3D176E" height="39.7891" id="resource" rx="2.5" ry="2.5" style="stroke:#000D19;stroke-width:0.5;" width="113" x="112.5" y="7"/><ellipse cx="127.5" cy="26.8945" fill="#ADD1B2" rx="11" ry="11" style="stroke:#181818;stroke-width:1.0;"/><path d="M130.4688,32.5352 Q129.8906,32.832 129.25,32.9727 Q128.6094,33.1289 127.9063,33.1289 Q125.4063,33.1289 124.0781,31.4883 Q122.7656,29.832 122.7656,26.707 Q122.7656,23.582 124.0781,21.9258 Q125.4063,20.2695 127.9063,20.2695 Q128.6094,20.2695 129.25,20.4258 Q129.9063,20.582 130.4688,20.8789 L130.4688,23.5977 Q129.8438,23.0195 129.25,22.7539 Q128.6563,22.4727 128.0313,22.4727 Q126.6875,22.4727 126,23.5508 Q125.3125,24.6133 125.3125,26.707 Q125.3125,28.8008 126,29.8789 Q126.6875,30.9414 128.0313,30.9414 Q128.6563,30.9414 129.25,30.6758 Q129.8438,30.3945 130.4688,29.8164 L130.4688,32.5352 Z " fill="#000000"/><text fill="#D9B8FF" font-family="Helvetica" font-size="17" lengthAdjust="spacing" textLength="71" x="146.5" y="32.7798">resource</text></g><!--reverse link microsoft_resource to microsoft_graph_entity--><g id="link_microsoft_resource_microsoft_graph_entity"><path codeLine="35" d="M169,225.84 C169,256.36 169,297.69 169,328.25 " fill="none" id="microsoft_resource-backto-microsoft_graph_entity" style="stroke:#FFAF37;stroke-width:2.0;"/><polygon fill="none" points="169,207.84,163,225.84,175,225.84,169,207.84" style="stroke:#FFAF37;stroke-width:2.0;"/></g><!--reverse link microsoft_graph_entity to microsoft_graph_service_principal--><g id="link_microsoft_graph_entity_microsoft_graph_service_principal"><path codeLine="36" d="M169,386.63 C169,417.15 169,458.48 169,489.04 " fill="none" id="microsoft_graph_entity-backto-microsoft_graph_service_principal" style="stroke:#FFAF37;stroke-width:2.0;"/><polygon fill="none" points="169,368.63,163,386.63,175,386.63,169,368.63" style="stroke:#FFAF37;stroke-width:2.0;"/></g><!--reverse link resource to microsoft_resource--><g id="link_resource_microsoft_resource"><path codeLine="37" d="M169,65.05 C169,95.57 169,136.9 169,167.47 " fill="none" id="resource-backto-microsoft_resource" style="stroke:#FFAF37;stroke-width:2.0;"/><polygon fill="none" points="169,47.05,163,65.05,175,65.05,169,47.05" style="stroke:#FFAF37;stroke-width:2.0;"/></g><!--SRC=[XP9DQm8n48Rl-HK1pu9MMbteHHTAUv5IUr_6PB8Rt4t29AlOZ_zUhRN4_T3hl4yopmnJQ8aSAnVslC9gZUIPtsZZWA3YSoAxIsrfYG-K0ZMPDiCdQy9DO0aLycSijnYqW2RnNcYnCUWzlukY1OXDJhOsylHz833-4A494PMMuFqy1DBhEc0a8vFrJAacsVnqC97ZwGEsC4iIwGyPZKPod3IHcwskplrFhFG7yd6yjAKDsD9ijVYbhbeUYKYoDUWvxtLy1IcroVbzL7ixEP51kgYl2f1sTwGLb3vkumCIsh1tcBQcmcGcrRGJVkc3cJYkZbTQaFLMXImdS4Lsk0fzkE1Fnhvx28-qrG8pHze8xQ3iXWczhKbWd5xMEjZ7h-5msEF4UbIxtxGiMM-JSy1-0000]--></g></svg>

<svg xmlns="http://www.w3.org/2000/svg" width="338" height="535" viewBox="0 0 338 535"><rect width="236" height="39.789" x="51" y="328.58" fill="#3D176E" rx="2.5" ry="2.5" style="stroke:#000d19;stroke-width:.5"/><circle cx="66" cy="348.474" r="11" fill="#ADD1B2" style="stroke:#181818;stroke-width:1"/><path d="M68.969 354.115q-.578.297-1.219.438-.64.156-1.344.156-2.5 0-3.828-1.64-1.312-1.657-1.312-4.782t1.312-4.781q1.328-1.656 3.828-1.656.703 0 1.344.156.656.156 1.219.453v2.719q-.625-.579-1.219-.844-.594-.281-1.219-.281-1.344 0-2.031 1.078-.687 1.062-.687 3.156t.687 3.172q.688 1.062 2.031 1.062.625 0 1.219-.265.594-.281 1.219-.86z"/><text x="85" y="354.36" fill="#D9B8FF" font-family="Helvetica" font-size="17" textLength="194">microsoft_graph_entity</text><rect width="324" height="39.789" x="7" y="489.37" fill="#3D176E" rx="2.5" ry="2.5" style="stroke:#000d19;stroke-width:.5"/><circle cx="22" cy="509.264" r="11" fill="#ADD1B2" style="stroke:#181818;stroke-width:1"/><path d="M24.969 514.905q-.578.297-1.219.438-.64.156-1.344.156-2.5 0-3.828-1.64-1.312-1.657-1.312-4.782t1.312-4.781q1.328-1.656 3.828-1.656.703 0 1.344.156.656.156 1.219.453v2.719q-.625-.579-1.219-.844-.594-.281-1.219-.281-1.343 0-2.031 1.078-.687 1.062-.687 3.156t.687 3.172q.688 1.062 2.031 1.062.625 0 1.219-.265.594-.282 1.219-.86z"/><text x="41" y="515.15" fill="#D9B8FF" font-family="Helvetica" font-size="17" textLength="282">microsoft_graph_service_principal</text><rect width="200" height="39.789" x="69" y="167.79" fill="#3D176E" rx="2.5" ry="2.5" style="stroke:#000d19;stroke-width:.5"/><circle cx="84" cy="187.685" r="11" fill="#ADD1B2" style="stroke:#181818;stroke-width:1"/><path d="M86.969 193.325q-.578.297-1.219.438-.64.156-1.344.156-2.5 0-3.828-1.64-1.312-1.657-1.312-4.782t1.312-4.781q1.328-1.656 3.828-1.656.703 0 1.344.156.656.156 1.219.453v2.719q-.625-.578-1.219-.844-.594-.281-1.219-.281-1.344 0-2.031 1.078-.687 1.062-.687 3.156t.687 3.172q.688 1.062 2.031 1.062.625 0 1.219-.265.594-.281 1.219-.86z"/><text x="103" y="193.57" fill="#D9B8FF" font-family="Helvetica" font-size="17" textLength="158">microsoft_resource</text><rect width="113" height="39.789" x="112.5" y="7" fill="#3D176E" rx="2.5" ry="2.5" style="stroke:#000d19;stroke-width:.5"/><circle cx="127.5" cy="26.895" r="11" fill="#ADD1B2" style="stroke:#181818;stroke-width:1"/><path d="M130.469 32.535q-.578.297-1.219.438-.64.156-1.344.156-2.5 0-3.828-1.64-1.312-1.657-1.312-4.782t1.312-4.781q1.328-1.656 3.828-1.656.703 0 1.344.156.656.156 1.219.453v2.719q-.625-.578-1.219-.844-.594-.281-1.219-.281-1.344 0-2.031 1.078-.687 1.062-.687 3.156t.687 3.172q.688 1.062 2.031 1.062.625 0 1.219-.265.594-.281 1.219-.86z"/><text x="146.5" y="32.78" fill="#D9B8FF" font-family="Helvetica" font-size="17" textLength="71">resource</text><path fill="none" d="M169 225.84v102.41m0-120.41-6 18h12zm0 178.79v102.41m0-120.41-6 18h12zm0-303.58v102.42m0-120.42-6 18h12z" style="stroke:#ffaf37;stroke-width:2"/></svg>
